proprietary/assets/icons/voedsel/brood-met-pijl-omhoog.svg

<svg height="64" viewBox="0 0 64 64" width="64" xmlns="http://www.w3.org/2000/svg"><path d="m0 0h64v64h-64z" fill="none"/><circle cx="13.5" cy="18.5" r="1.5"/><circle cx="21.5" cy="22.5" r="1.5"/><circle cx="15.5" cy="35.5" r="1.5"/><path d="m43.8212 44.3892c-1.514-.538-2.5377-1.6655-3.0086-2.9708-.8059-2.2235.0804-4.7356 2.163-5.9664l9.0244-5.3353v-3.8031c2.3584-1.8273 4.0044-4.3445 4-7.3136.0065-4.2987-3.3835-7.5568-7.3757-9.2974-2.5121-1.0894-5.4638-1.7013-8.6243-1.7026h-22c-4.2138.0051-8.0571 1.0813-10.981 2.9537-2.864 1.8432-5.0241 4.6412-5.019 8.0463-.0044 2.966 1.6384 5.4838 4 7.3136v17.6864c.0013 2.7622 2.2378 4.9987 5 5h24.8115c3.0702-.8284 5.8161-2.4396 8.0097-4.6108zm-14.5716-23.0218c-.9015 1.3924-2.2099 2.1634-3.2496 2.846v19.7866c-.001.5515-.4485.999-1 1h-14c-.5515-.001-.999-.4485-1-1v-19.7866c-1.0435-.6851-2.3481-1.4537-3.2496-2.8459-1.0119-1.5695-.998-3.2117.0206-4.7714 1.5484-2.3761 5.6948-4.5989 11.229-4.5961 5.8129-.0085 9.7758 2.3805 11.229 4.5961 1.0169 1.557 1.0341 3.1993.0206 4.7713z"/><path d="m62.0508 44.6738-3.7725-12.024c-.1615-.5154-.5548-.9266-1.0671-1.1164-.5123-.1899-1.0874-.1375-1.5608.1426l-11.0486 6.5322c-.7404.4369-1.0681 1.3268-.7803 2.1213.2871.794 1.1083 1.2702 1.9583 1.1357l4.5256-.7163c-2.819 5.8209-8.1957 10.2056-14.7269 11.6089-.8085.1737-1.6107.9173-1.5684 2.0435l.0771 2.0576c.0401 1.0695 1.2801 1.8494 2.3296 1.6398 8.7106-1.7391 15.8632-7.6428 19.4072-15.4716l3.1177 3.715c.5424.6505 1.4812.8263 2.2391.4196.7587-.4068 1.1229-1.2841.87-2.0879z"/></svg>

<?xml version="1.0" encoding="utf-8"?>
<!-- Generator: Adobe Illustrator 19.1.0, SVG Export Plug-In . SVG Version: 6.00 Build 0)  -->
<svg version="1.2" baseProfile="tiny" xmlns="http://www.w3.org/2000/svg" xmlns:xlink="http://www.w3.org/1999/xlink" x="0px"
	 y="0px" width="64px" height="64px" viewBox="0 0 64 64" xml:space="preserve">
<g id="Box">
	<rect fill="none" width="64" height="64"/>
</g>
<g id="Icon">
	<g>
		<circle cx="13.5" cy="18.5" r="1.5"/>
		<circle cx="21.5" cy="22.5" r="1.5"/>
		<circle cx="15.5" cy="35.5" r="1.5"/>
		<path d="M43.8212,44.3892c-1.514-0.538-2.5377-1.6655-3.0086-2.9708c-0.8059-2.2235,0.0804-4.7356,2.163-5.9664L52,30.1167
			v-3.8031c2.3584-1.8273,4.0044-4.3445,4-7.3136c0.0065-4.2987-3.3835-7.5568-7.3757-9.2974C46.1122,8.6132,43.1605,8.0013,40,8H18
			c-4.2138,0.0051-8.0571,1.0813-10.981,2.9537C4.155,12.7969,1.9949,15.5949,2,19c-0.0044,2.966,1.6384,5.4838,4,7.3136V44
			c0.0013,2.7622,2.2378,4.9987,5,5h24.8115C38.8817,48.1716,41.6276,46.5604,43.8212,44.3892z M29.2496,21.3674
			c-0.9015,1.3924-2.2099,2.1634-3.2496,2.846V44c-0.001,0.5515-0.4485,0.999-1,1H11c-0.5515-0.001-0.999-0.4485-1-1V24.2134
			c-1.0435-0.6851-2.3481-1.4537-3.2496-2.8459c-1.0119-1.5695-0.998-3.2117,0.0206-4.7714C8.3194,14.22,12.4658,11.9972,18,12
			c5.8129-0.0085,9.7758,2.3805,11.229,4.5961C30.2459,18.1531,30.2631,19.7954,29.2496,21.3674z"/>
		<path d="M62.0508,44.6738l-3.7725-12.024c-0.1615-0.5154-0.5548-0.9266-1.0671-1.1164c-0.5123-0.1899-1.0874-0.1375-1.5608,0.1426
			l-11.0486,6.5322c-0.7404,0.4369-1.0681,1.3268-0.7803,2.1213c0.2871,0.794,1.1083,1.2702,1.9583,1.1357l4.5256-0.7163
			c-2.819,5.8209-8.1957,10.2056-14.7269,11.6089c-0.8085,0.1737-1.6107,0.9173-1.5684,2.0435l0.0771,2.0576
			c0.0401,1.0695,1.2801,1.8494,2.3296,1.6398c8.7106-1.7391,15.8632-7.6428,19.4072-15.4716l3.1177,3.715
			c0.5424,0.6505,1.4812,0.8263,2.2391,0.4196C61.9395,46.3549,62.3037,45.4776,62.0508,44.6738z"/>
	</g>
</g>
</svg>
